public/icons/icon-arrow-right.svg

<svg width="24" height="26" viewBox="0 0 24 26" fill="none" xmlns="http://www.w3.org/2000/svg">
<path d="M22.7004 12.2833L16.1535 5.79682C15.7541 5.40106 15.1063 5.40106 14.7068 5.79682C14.3073 6.19266 14.3073 6.83433 14.7068 7.23017L19.5074 11.9865H2.02294C1.45803 11.9865 1 12.4403 1 13C1 13.5596 1.45803 14.0135 2.02294 14.0135H19.5074L14.707 18.7698C14.3075 19.1656 14.3075 19.8073 14.707 20.2032C14.9067 20.4009 15.1686 20.5 15.4304 20.5C15.6921 20.5 15.9539 20.4009 16.1537 20.2032L22.7004 13.7167C23.0999 13.3208 23.0999 12.6792 22.7004 12.2833Z" fill="white"/>
</svg>

<svg xmlns="http://www.w3.org/2000/svg" width="24" height="26" fill="none"><path fill="#fff" d="m22.7 12.283-6.546-6.486a1.03 1.03 0 0 0-1.447 0c-.4.396-.4 1.037 0 1.433l4.8 4.756H2.023C1.458 11.987 1 12.44 1 13s.458 1.014 1.023 1.014h17.484l-4.8 4.756c-.4.396-.4 1.037 0 1.433a1.026 1.026 0 0 0 1.447 0l6.546-6.486c.4-.396.4-1.038 0-1.434"/></svg>
